X: 2412
T: NEGRO SAND DANCE
R: hornpipe
B: James Kerr "Merry Melodies" v.2 p.46 #412
Z: 2016 John Chambers <jc:trillian.mit.edu>
M: C
L: 1/8
K: C
|:\
E2 (3(GEG) c>GE>G | F2 (3(AFA) c>AF>A |\
G>BG>B d>BG>B | c>ec>e g>ec>G |\
E2 (3(GEG) c>GE>G | F2 (3(AFA) c>AF>A |\
G>Bd>B G>fd>B | c2c2 c2 H:|
|:\
A2 (3(cAc) e>cA>c | B>eB>^G E>E^F>G |\
A2 (3(cAc) e>cA>c | B>eB>^G E2e2 |\
A2 (3(cAc) e>cA>c | B>eB>^G E2f2 |\
(3(efe) (3(ded) (3(cdc) (3(BcB) |\
[1 A2a2 a2 :|[2 A2z2 "_D.C."[B4F4] |]
